X:1
T:Title
%%score { 1 | 2 }
L:1/8
M:4/4
K:A
V:1 treble nm="Grand Piano"
V:2 bass 
V:1
 z4 z2 z[Q:1/4=100] [CE] | [CA]2 [CA]>[CA] [CA]2 [CG]>[CA] | B2 E2 E3 E | B2 B>B B2 A>B | %4
 c2 A2 A3 [CE] | [Ec]2 [Ec]>[Ec] [Ec]2 [EB]>[EA] | [DF]>[Fd] [Fd]>[Fd] [Fd]3 [Fd] | %7
 [Ee]>[Ee] [Ee]>[Ee] [Fe]2 [Fd]>[FB] |[M:7/8] A>Ac>B [CA]3 |[M:1/8] E |[M:4/4] E c3 c A3 | %11
 [FB]>[FA] [FA]>[DF] [CE]4 | E B3 E B3 | A>G A>B c3 E | E>c c>c c2 B>A | %15
 F>[Fd] [Fd]>[Fd] [Fd]3 [Fd] | [Ee]>[Ee] [Ee]>[Ee] [Fe]>[Fe] [Fd]>[FB] |[M:7/8] A>Ac>B [CA]3 |] %18
V:2
 z4 z2 z [A,,A,] | [A,,A,]2 [A,,A,]>[A,,A,] [A,,A,]2 [A,,A,]>[A,,A,] | %2
 [E,G,E]2 [E,G,]2 [E,G,]3 [E,G,] | [E,G,E]2 [E,G,E]>[E,G,E] [E,G,E]2 [E,F,E]>[E,G,E] | %4
 [A,E]2 [A,C]2 [A,C]3 [A,,A,] | [A,,A,]2 [A,,A,]>[A,,A,] [A,,A,]2 [E,G,]>[C,A,] | %6
 [D,A,]>[D,A,] [D,A,]>[D,A,] [D,A,]3 [D,A,] | [C,A,]>[C,A,] [C,A,]>[C,A,] [D,A,]2 [D,B,]>[D,D] | %8
[M:7/8] [E,CE]>[E,A,C][E,G,E]>[E,G,D] [A,,A,]3 |[M:1/8] [A,C] |[M:4/4] [A,C] [A,E]3 [A,E] [A,C]3 | %11
 [D,A,]>[D,A,] [D,A,]>[D,A,] [A,,A,]4 | [E,G,D] [E,G,D]3 [E,G,D] [E,G,D]3 | %13
 [A,C]>[A,B,] [A,C]>[A,E] [A,E]3 [A,C] | [A,C]>[A,E] [A,E]>[A,E] [A,E]2 [A,D]>[A,C] | %15
 [D,A,D]>[D,A,] [D,A,]>[D,A,] [D,A,]3 [D,A,] | %16
 [C,A,]>[C,A,] [C,A,]>[C,A,] [D,A,]>[D,A,] [D,B,]>[D,D] | %17
[M:7/8] [E,CE]>[E,A,C][E,G,E]>[E,G,D] [A,,A,]3 |] %18

